X:126
T:Vine Dressers, The
T:Dance
S:John Moore's Book 2
Z:Transcribed by Edmund Spriggs 05/2021
%%VWML: Moore1-4494-p97-0
F:http://www.vwml.org/record/Moore2/4494/p97
M:6/8
N:"Vine" looks right, not "Fine". Compare the V in St Vincent's Hornpipe on page 64.
L:1/8
K:A
e|e2d cBA|e2e e2E|GFE BAG|dcB fed|
c2e B2e|A2c e2d|c2e B2e|cAA A2|]
[|c|B2AG2c|B2AG2c|B2A GAF|EGA Bcd|
e2d cBA|f2e dcB|c2e B2e|cAA A2|]

